img/logo_filmora.svg

<svg xmlns="http://www.w3.org/2000/svg" width="914" height="168" fill="none"><path fill="#0D6050" d="M51.824 62.608V75.76H24.368v14.208h20.544v12.768H24.368V130H7.952V62.608h43.872Zm115.284 0V130h-16.416V62.608h16.416Zm118.552 54.72h21.504V130h-37.92V62.608h16.416v54.72Zm195.895-54.72V130h-16.416V89.584L450.067 130h-13.248l-15.168-40.512V130h-16.416V62.608h19.392l18.912 46.656 18.72-46.656h19.296ZM728.551 130l-14.016-25.44h-3.936V130h-16.416V62.608h27.552c5.312 0 9.824.928 13.536 2.784 3.776 1.856 6.592 4.416 8.448 7.68 1.856 3.2 2.784 6.784 2.784 10.752 0 4.48-1.28 8.48-3.84 12-2.496 3.52-6.208 6.016-11.136 7.488L747.079 130h-18.528Zm-17.952-37.056h10.176c3.008 0 5.248-.736 6.72-2.208 1.536-1.472 2.304-3.552 2.304-6.24 0-2.56-.768-4.576-2.304-6.048-1.472-1.472-3.712-2.208-6.72-2.208h-10.176v16.704ZM889 118.096h-25.152L859.816 130h-17.184l24.384-67.392h19.008L910.408 130h-17.376L889 118.096Zm-4.224-12.672-8.352-24.672-8.256 24.672h16.608Z"/><path fill="#0D6050" fill-rule="evenodd" d="M585.5 158c34.518 0 62.5-27.982 62.5-62.5S620.018 33 585.5 33 523 60.982 523 95.5s27.982 62.5 62.5 62.5Zm.5-13c8.837 0 16-7.163 16-16s-7.163-16-16-16-16 7.163-16 16 7.163 16 16 16Zm-18-50c0 8.837-7.163 16-16 16s-16-7.163-16-16 7.163-16 16-16 16 7.163 16 16Zm51 16c8.837 0 16-7.163 16-16s-7.163-16-16-16-16 7.163-16 16 7.163 16 16 16Zm-18-49c0 8.837-7.163 16-16 16s-16-7.163-16-16 7.163-16 16-16 16 7.163 16 16Zm-15.5 40a6.5 6.5 0 1 0 0-13 6.5 6.5 0 0 0 0 13Z" clip-rule="evenodd"/></svg>

<svg width="914" height="168" viewBox="0 0 914 168" fill="none" xmlns="http://www.w3.org/2000/svg">
<path d="M51.824 62.608V75.76H24.368V89.968H44.912V102.736H24.368V130H7.952V62.608H51.824ZM167.108 62.608V130H150.692V62.608H167.108ZM285.66 117.328H307.164V130H269.244V62.608H285.66V117.328ZM481.555 62.608V130H465.139V89.584L450.067 130H436.819L421.651 89.488V130H405.235V62.608H424.627L443.539 109.264L462.259 62.608H481.555ZM728.551 130L714.535 104.56H710.599V130H694.183V62.608H721.735C727.047 62.608 731.559 63.536 735.271 65.392C739.047 67.248 741.863 69.808 743.719 73.072C745.575 76.272 746.503 79.856 746.503 83.824C746.503 88.304 745.223 92.304 742.663 95.824C740.167 99.344 736.455 101.84 731.527 103.312L747.079 130H728.551ZM710.599 92.944H720.775C723.783 92.944 726.023 92.208 727.495 90.736C729.031 89.264 729.799 87.184 729.799 84.496C729.799 81.936 729.031 79.92 727.495 78.448C726.023 76.976 723.783 76.24 720.775 76.24H710.599V92.944ZM889 118.096H863.848L859.816 130H842.632L867.016 62.608H886.024L910.408 130H893.032L889 118.096ZM884.776 105.424L876.424 80.752L868.168 105.424H884.776Z" fill="#0D6050"/>
<path fill-rule="evenodd" clip-rule="evenodd" d="M585.5 158C620.018 158 648 130.018 648 95.5C648 60.9822 620.018 33 585.5 33C550.982 33 523 60.9822 523 95.5C523 130.018 550.982 158 585.5 158ZM586 145C594.837 145 602 137.837 602 129C602 120.163 594.837 113 586 113C577.163 113 570 120.163 570 129C570 137.837 577.163 145 586 145ZM568 95C568 103.837 560.837 111 552 111C543.163 111 536 103.837 536 95C536 86.1634 543.163 79 552 79C560.837 79 568 86.1634 568 95ZM619 111C627.837 111 635 103.837 635 95C635 86.1634 627.837 79 619 79C610.163 79 603 86.1634 603 95C603 103.837 610.163 111 619 111ZM601 62C601 70.8366 593.837 78 585 78C576.163 78 569 70.8366 569 62C569 53.1634 576.163 46 585 46C593.837 46 601 53.1634 601 62ZM585.5 102C589.09 102 592 99.0899 592 95.5C592 91.9101 589.09 89 585.5 89C581.91 89 579 91.9101 579 95.5C579 99.0899 581.91 102 585.5 102Z" fill="#0D6050"/>
</svg>
